src/16/panel/bitcoin-indicator.svg

<svg xmlns="http://www.w3.org/2000/svg" width="16" height="16" version="1.1">
 <defs>
  <style id="current-color-scheme" type="text/css">
   .ColorScheme-Text { color:#dfdfdf; } .ColorScheme-Highlight { color:#4285f4; }
  </style>
 </defs>
 <path style="fill:currentColor" class="ColorScheme-Text" d="M 8 1 A 7 7 0 0 0 1 8 A 7 7 0 0 0 8 15 A 7 7 0 0 0 15 8 A 7 7 0 0 0 8 1 z M 6 3 L 7 3 L 7 4 C 7.303 3.989 7.701 4 8 4 L 8 3 L 9 3 L 9 4 L 10 4 C 10.567 4 11 5 11 5.75 C 11 7 10.567406 7.443 9.8164062 7.5 C 10.999406 7.501 12 8 12 9.5 C 12 11.634 10.892375 11.862 8.984375 12 L 9.015625 13 L 8.015625 13 L 7.984375 12 L 7 12 L 7 12.982422 L 6 13 L 6 12 C 5.7342 12 5.4020531 11.99 5.1269531 12 L 4 12 L 4 11 C 4 11 4.6905813 11.013 4.6757812 11 C 4.9972813 10.99 4.9824 10.641 5 10.5 L 5 5.5488281 C 4.9524 5.3261281 4.8058031 4.993 4.3457031 5 C 4.3594031 4.985 4 5 4 5 L 4 4 L 5.0664062 4 C 5.3019064 4 5.7542 4.01 6 4 L 6 3 z M 7 5 L 7 7 C 8.269 7 9 7 9 6 C 9 5 8.41 5 7 5 z M 7 8 L 7 11 C 9 11 10 11 10 9.5 C 10 8 9 8 7 8 z"/>
</svg>

<svg xmlns="http://www.w3.org/2000/svg" width="16" height="16"><defs><style id="current-color-scheme" type="text/css">.ColorScheme-Text{color:#dfdfdf;}.ColorScheme-Highlight{color:#5294e2;}</style></defs><defs><style id="current-color-scheme" type="text/css"></style></defs><path d="M8 1a7 7 0 0 0-7 7 7 7 0 0 0 7 7 7 7 0 0 0 7-7 7 7 0 0 0-7-7zM6 3h1v1c.303-.011.701 0 1 0V3h1v1h1c.567 0 1 1 1 1.75C11 7 10.567 7.443 9.816 7.5 11 7.501 12 8 12 9.5c0 2.134-1.108 2.362-3.016 2.5l.032 1h-1l-.032-1H7v.982L6 13v-1c-.266 0-.598-.01-.873 0H4v-1s.69.013.676 0c.321-.01.306-.359.324-.5V5.549c-.048-.223-.194-.556-.654-.549C4.359 4.985 4 5 4 5V4h1.066c.236 0 .688.01.934 0V3zm1 2v2c1.269 0 2 0 2-1s-.59-1-2-1zm0 3v3c2 0 3 0 3-1.5S9 8 7 8z" fill="currentColor" class="ColorScheme-Text"/></svg>
